X:173
T: Muede kehrt ein Wandersmann zurueck
N: D1004
O: Europa, Mitteleuropa, Schweiz, Kt. Aargau, Wohlen - Zufikon
N: DVA-Signatur A 24 689
R: Liebes - Lied
M: 4/4
L: 1/16
K: G
D2D2 | B6A2G3FG3A | D8z4
F3G | A6G2F2A2e2d2 | B8z4
G3A | B2d2d4c3BA2G2 | E8z4
G3E | D4G4F2A2e2d2 | B8z4
G3A | B2d2d4c3BA2G2 | c8z4
c2A2 | d6c2D2c2B2A2 | G8z4

